mimetypes/scalable/application-images.svg

<?xml version="1.0" standalone="no"?><!-- Generator: Gravit.io --><svg xmlns="http://www.w3.org/2000/svg" xmlns:xlink="http://www.w3.org/1999/xlink" style="isolation:isolate" viewBox="0 0 256 256" width="256" height="256"><switch><g><g id="application-mimetype"><g opacity="0.2"><path d=" M 78.924321 15.500025 C 43.627596 15.500025 39.829708 19.125398 40.002695 54.49353 L 40.002695 127.500014 L 40.002695 200.506441 C 39.829708 235.874573 43.627596 239.500004 78.924321 239.500004 L 177.081083 239.500004 C 212.377805 239.500004 216.002702 235.875035 216.002702 200.506441 L 216.002702 127.500014 L 216.002702 54.49353 C 216.002702 19.124994 212.377805 15.500025 177.081083 15.500025 L 78.924321 15.500025 Z " id="path1163" fill="none" vector-effect="non-scaling-stroke" stroke-width="4" stroke="rgb(0,0,0)" stroke-linejoin="miter" stroke-linecap="butt" stroke-miterlimit="4"/></g><defs><filter id="5m3zM9AuaDbdUYSY9Wk7Cah48XDrnjMV" x="-200%" y="-200%" width="400%" height="400%" filterUnits="objectBoundingBox" color-interpolation-filters="sRGB"><feGaussianBlur xmlns="http://www.w3.org/2000/svg" stdDeviation="2.120027"/></filter></defs><g opacity="0.1" filter="url(#5m3zM9AuaDbdUYSY9Wk7Cah48XDrnjMV)"><path d=" M 78.924315 16.5 C 43.627592 16.5 39.82971 20.125416 40.002699 55.493531 L 40.002699 128.5 L 40.002699 201.50647 C 39.82971 236.874573 43.627592 240.500001 78.924315 240.500001 L 177.081083 240.500001 C 212.377806 240.500001 215.084425 236.863068 216.002699 201.50647 L 216.002699 128.5 L 216.002699 55.493531 C 216.002699 20.124997 212.377806 16.5 177.081083 16.5 L 78.924315 16.5 Z " id="shadow" fill="rgb(0,0,0)"/></g><defs><filter id="BuzGcS8OKgNYzs9v4DuOyX0JdfdvFm1D" x="-200%" y="-200%" width="400%" height="400%" filterUnits="objectBoundingBox" color-interpolation-filters="sRGB"><feGaussianBlur xmlns="http://www.w3.org/2000/svg" stdDeviation="8.4801079"/></filter></defs><g opacity="0.3" filter="url(#BuzGcS8OKgNYzs9v4DuOyX0JdfdvFm1D)"><linearGradient id="_lgradient_17" x1="-0.0681490711308741" y1="0.03125" x2="0.9537210324437329" y2="1.0531201035746074" gradientTransform="matrix(176.005396,0,0,224,39.997303,16.5)" gradientUnits="userSpaceOnUse"><stop offset="0%" stop-opacity="0.58823532" style="stop-color:rgb(0,0,0)"/><stop offset="88%" stop-opacity="0" style="stop-color:rgb(0,0,0)"/><stop offset="100%" stop-opacity="1" style="stop-color:rgb(0,0,0)"/></linearGradient><path d=" M 78.924315 16.5 C 43.627592 16.5 39.82971 20.125416 40.002699 55.493531 L 40.002699 128.5 L 40.002699 201.50647 C 39.82971 236.874573 43.627592 240.500001 78.924315 240.500001 L 177.081083 240.500001 C 212.377806 240.500001 216.002699 236.875001 216.002699 201.50647 L 216.002699 128.5 L 216.002699 55.493531 C 216.002699 20.124997 212.377806 16.5 177.081083 16.5 L 78.924315 16.5 Z " id="blur" fill="url(#_lgradient_17)"/></g><linearGradient id="_lgradient_18" x1="0.5128975552295578" y1="1.191393749925565" x2="0.5128975552295579" y2="-0.21314917458906102" gradientTransform="matrix(176.005402,0,0,223.999979,39.9973,15.500025)" gradientUnits="userSpaceOnUse"><stop offset="0%" stop-opacity="1" style="stop-color:rgb(231,38,98)"/><stop offset="48.271722%" stop-opacity="1" style="stop-color:rgb(236,60,80)"/><stop offset="100%" stop-opacity="1" style="stop-color:rgb(255,123,102)"/></linearGradient><path d=" M 78.924321 15.500025 C 43.627596 15.500025 39.829708 19.125398 40.002695 54.49353 L 40.002695 127.500014 L 40.002695 200.506441 C 39.829708 235.874573 43.627596 239.500004 78.924321 239.500004 L 177.081083 239.500004 C 212.377805 239.500004 216.002702 235.875035 216.002702 200.506441 L 216.002702 127.500014 L 216.002702 54.49353 C 216.002702 19.124994 212.377805 15.500025 177.081083 15.500025 L 78.924321 15.500025 Z " id="shape" fill="url(#_lgradient_18)"/><g opacity="0.6"><path d=" M 78.924573 15.500025 C 43.627848 15.500025 39.829708 19.126032 40.002695 54.494165 L 40.002695 56.494138 C 39.829708 21.126005 43.627848 17.499998 78.924573 17.499998 L 177.080824 17.499998 C 212.377545 17.499998 216.002702 21.125601 216.002702 56.494138 L 216.002702 54.494165 C 216.002702 19.125571 212.377545 15.500025 177.080824 15.500025 L 78.924573 15.500025 Z " id="highlight" fill="rgb(255,255,255)"/></g></g><g id="image"><g opacity="0.6"><path d=" M 109.42868 106.303087 L 73 176.12398 L 107.185397 176.12398 L 161.035723 176.12398 L 134.110108 124.516974 L 126.520938 139.063324 L 109.42868 106.303087 Z " id="mountain" fill="rgb(255,255,255)"/></g><g opacity="0.6"><path d=" M 165.812859 79.87602 C 156.320698 79.87602 148.625718 87.57095 148.625718 97.063173 C 148.625718 106.555347 156.320698 114.250327 165.812859 114.250327 C 175.305008 114.250327 183 106.555347 183 97.063173 C 183 87.57095 175.305057 79.87602 165.812859 79.87602 L 165.812859 79.87602 Z " id="sun" fill="rgb(255,255,255)"/></g></g></g><foreignObject requiredExtensions="http://ns.gravit.io/"><gravitDesigner:gravitElementRef xmlns:gravitDesigner="http://ns.gravit.io/" xlink:href="#oZrewywyTkEuCuQCfiiHPlRxXeMncISZ"/></foreignObject></switch><gravitDesigner:gravitGraphicSource xmlns:gravitDesigner="http://ns.gravit.io/" id="oZrewywyTkEuCuQCfiiHPlRxXeMncISZ" version="1"><![CDATA[eMKcw51aacKPw6JowpLDvisjesK0XzYrw5vDt1HDkkprYxsfw5hgfGDDk8OVWsO5w4LDt31gaMO1f19DQsKSVGfDl2TDjcO0bMK3wpYUSgjCvxHCjgjDh8OzwrwRNsK/w4zDvnvDtnlWOWEwe8Kaw719w7bDucKnXy7CgsKwKcO7w6pBUjldNAnCvMKsbAN/w7bCuWvDusOgaVZ1w63CtMOgwqcZw6zCrDJ1UwnCjiHDv8OXwrTDqMKHw6nCvcKGw5vCqFvCosKQwrXDmRHCgAjDr8K0wp7DowDCusOTa0s4Lk3Ch8KawpbDsMOTe8OvwrfDoMKrw6bDj08/w41YQcOOVWPCtcOzwoBXU0l9woxaK2I2w4wqw5DChVXClCM+wr0iwocmJhjCvcOxAm1acnYtI8K8THVSw5JJw5/CmsOawqBgeDfClTNIw6XCtjnChsKbwrhUA1EFLMOqwqTClcOhwpotw6pqBMKGw7HCrsK3K8O9w6Qewo1Cw5liw4YsN8OcQsOow4jDqMKYGMO1GMOnLcKBwoBLZSfDjy3DohrDjcOFwoXDrX7CmcOewqLCuSRGIxdpw7pqwooGTT3CgDtdw542wqRpwo/CsSwrEsKfwpRHCMKEMmDCvVHCrsORXBJzw5PCvMKYw4JlTMKNH0zDhcORcAzChzwCw6hgwokYwphdbsKgMknDomJdY8KnbntEwq5ew6EhGsK+asKeTcONAzNRwqvChwDDsyzCr8KMw4w9QinCv04sw4HDh1ZuCh3DgznDj2TCpQAnw5HDlcKrwotmPsOcA8K8CMKiwoccw7cFQMK7wrbCtCjDqk7Dm8Oxw5zCtiVIGhfCgzTCk31hSyHDjl0vfcK4w4w6HMOBCcOLw5YuRsK6O8Ktcxw5w5U1wqbCqgXDgsOjwrTChcKSXsKjwrlow5bDgsO9Ml8SEz0Uw5/CpjvDkMO0w7rCtMKRw7fCp8KTw5LCmEjCqBVcF2XCjsOfbTIsKMOEazTCl8OEw5w0f8O+w7lpw5YEw7tuw6xmwp/Ciz7Diy7Dn8Kcw4LCi8OKw6Zcw6TDk8ORwq7DmU8fw6BnHCdRCEcwDEAREkbDkCdgw7p7T8O8woxhJMKIwoEEwoATODjDvT19IjDDrBkkERjDgyAIwoNBEsKfw4wWTh5cAQbCghg8w7nDtT9tV1bCs8OPw4AzNH3DjsKcY3DDtsOgBsODwrjDqMKWL8KiwrfDsMOcw4dZwrZ+PXbCtlFNccOMw6Y/w7x0dg7DuMO5LBkmK3sna8KDX8KfXsKUw5zCssOxwoPDplHDjT3DjD7Dg8OPw6TDpcKFAy8vHDsfw4jCvMKzSsOfdcKXZXk2w7vCjMO8w7Y0wr9OAcO9w4ckw7FYwoHDqndaEWInwrLCjljDhwACUMKsw5sYKzbDgXrCiMOtw5nCr8KTbsKww58LE8KXw4w2wpIuBzvCssOZak04LsOmwqjDo8KrEjHDksOhbsKgwo7CoMKnAMKzwpvDg8OfJsKhw44jw5UDRWXCrHDCqwPDhhPDqWrCr3oURMOoVMKCw67Dl8Kjwpwbw6zCmMOpwqhdwrPCvcOjXksKw6V/w6zDlcOwwqp5LinCimJCwrVhCMOuXsKdwqVGUizCmxxyQ8KXFsOwwqnDksOawoAzYHNrSxLCqSJbw7daUjDCi8Ovw5UcwqLDisO0wq3CqcKzw617dQ5YwqUaIlQ7ZcKcEMO9SjYdw408wqXClSlDfsOvBcK8f8OXwqtDGsK+w4PCnULDmsONwrp3esOdNMKQXcOhGQTCusOySG3DhMOSw5HDkWLCjcOLwq7DkVxcGMKkwoFiw5UrQC7CicKZU1TCqsK+RiPCr8Oaw55kw7LDtsKwMcOhfcKpZsKAw6YSDMOnw6PCh3lhw6jCoXPCjcOmJTFXw40LNW50w7orU8OCIcOXCcOADcKtUFB6IsOMw4zCqBjCnUxYw6dVE1jCli9ewr3CoiEmfcOVwrwGWMKqw5hDwoDClsKWLMKpw4ZqdcKHXzPDh8OMbnfCqsKqDMOrw7DCtMOcGlRsw5xywozDk3rCocOCecO/GsOgw4XDlMOhIcOHw5Vqw64XcMOjwpnCpcOpwoQFw6TDmAEyAsO8w5AyPMK7b8KRcHXDl8ODHy4zGsKhw5jDgcO1HcKJTcOwEiTCtsKWwoPDjMKlw5rCgwXCq1rDocODw4hewqPCuWjDvkjDvsO4esKZXxLDs1B8w6hyw6PDqHHDocOYw5RROsOqMRLDicOGSRbCqVpQFEs6acO7azQvwonCuRXDnwdJCHhGwq/DmATCoDPDq8Kgw5jChcKEw54RfwLDkQnDjTgMwoAAwoTCgRBEwoDDsMOTJwh4Ri4Iw4dgBEQnwq5Cw648w5RGwo5fHsOewrIQw7jDh8Kxw5A/Yh7DsMO5w6Y/woDCkgDCisKCw5DCh8KZw6fCgcOgwq4swrTDqcO2KsOHOmlUw7AbJylWw4HCnkMddzHCmMKBLsOCTgHDn1jDqBbDl8O0McOwwrrDh8KYw5zCrG/DmMKLfBI3w5PCqcKfSRjDh2DCmDzCkzrChsKDwrdzw4nCucKwwqgXwpnDhUfCigzDtsKtIMOmbcK6w7bClsOxw5rCi8OWw6HCohRnwr/DvsKzLMOGw61VE17DiF10WAEhwpXDqMKrwoHCqcKZwpABwojCrVbCh35HfwfCi8KhcMODI8OZXsOewpZsTCXDhMOGFSFgwrVwJFhHdMOWc8Kqw69gwrHCsRvDucKKwpQxcjd6YcOfLMOnAmoRLMOUS8KpCMKDLMOjw7wewovDkcKxw54Bc8OAWsObw4VAJcKjOcKSXsOVwrJOwqRGFk/CksO7w613wrDDmMOCd8OyEcOkw6zCuMKSwrfDvsOJRsOaw6PComs0Z8KPS8KhwppAfcOyHSzDph8tQ8KxD07CscOvYMKqZMOrVivCuy1gO8KJKUcnw4vCjMK/woPDhTokPcOkQ8KsDMOGw5BkwrrCiMK7WMK5YAtgw6slwotYNTfCq8KrVy/CpDU/fMKLw4XCuMKdw6Q0fSbCgngMHcKDwoJowrPCgcKow6FEwrHDl8KYBMKYAcO7eyxWUMOZUsKmDkQAZcKFQFTCvMOHwo8gOEfDksOtw5x0aAXClcK+woPDhWhiw4vCkcODSMO7bMKERcOjEcORDsKDw644WsKqwrTDocKcO8OFw6FfwpTDhcOOwqh9w4thw7DChznDrMOfTU1Pw5/CpMOKw6UPwr98wpnCtV/DjsKnQxAURCAUJRHClCAAwoJ4w7oyw5vCj8OTwpFPw4AzwoARIEICOAjDggDCgSPDoMO5w5DDscOLOU4ABiF0w7p6XsO4w5Nkwqo6S8Knw6/DnsO0w7/Di8OdwqUvwrNJVl40JsOjEMKMw4LDkMOkw5h1w7nDs8OlXMK/wqvDscK6EMO8w4bCqjMtfsKZNWd3w5HDqSrDoWfCskRgwpzCgEDCmMO4w7XCtUtsS8KVw5DDisOMQsOgQhLDnUhlwqwkwrB4w4nDr8OFRlRNwr/DuGfDuBkkwp9xFEBhdMOKEcKJQSjCgsOdw47CtlNbw4ZqfSrDmXkqBsOOwrFNdxRPwrwvWsOCEgjDrMOGw7goQ8O/dsOYw60Xw4zCli52PsKewpxoYMOjw7XCh3TDncKcWn5Uw5fDhyXDqx/DtMOZw4fCh8OdE8K0cRMTwprCpsKSTMKRHGvCnyzCucKdZk8zBcKfwrlIe8K6dQ0fGXYzKCgZa2QXGcKHwqFLZwnDi1vCslUPGgPDmcOzwoPDrsKvfm/DmMOVwrplb3UsG8KpG1/Dk8KBBDVcwpBnw6RVRGVgDCTDvMOsw6PDgy7DjsOuTmvDk2AgKRLCp0nDnSYKKQZ3wo0wJ8KZwpxpUmPDtsOxYTfDkGTCsMOrbHMjwqLDk8KwAHp5wr8SFcO/dMOqwrfDugIrwrhkw7bDsWHCt3DDumRMGMKhLsKxw4Acc07ClRNrf1LDnMKkw4DDu1rDmcKUwrPCjw/CuyM/bDXCtsOrVkgiGMKBw4wew5ZlXW3DrEzDixkVwo3Cu8Omw7fChl0XXMKtC8O1cDrCqmkZwpnCqkA3w6xRwoMdHsOzF1wKwqvDpMOsw6PDg25UUMOLQ8OFw7PCjAvCpsOjwrHDlcOqw50KXS4oHsOdQMKmwrsnb8O7w41fasOYwp3CmsOMw6p8w4fDqV/DqyvDn8KSJTDDkT9EQmfDjsOEIMOsw4bClRPCvcKBEEHDoijCikLDk17CgsOiw4TCjSrDgcOJNRDCnlrCuWkLwplIFsO7JmlCMMO4BBNPJMOxwpbDoMOufMKJEMOQFDAEPcKqYE8Yw7BEAMOvwqk8MMOndMO2JxDCgsKfwqbCrcOtXcO+BMKfURzDgMKnTQ7DgnASIUgMwrsTaFVAeMKxbw/Di2bDpyDCo8K5YsKxEsKyaiolwrhmwpdsw6jDtmHDjMOOIS7CjcK5wrbDscKAwoHCo1DDmUbCh8O5wpQ2w5zCjwpLw6rDlFbDv8OYwphNScOaw5fDtGd2ccKXOXNzS8OQEcKbw6LCqMOiY8KIWlrClcOiaFB8dMK7azEfw4h3w6kPe8KLwotGwqA6woYHTgXDnVAhcip2e0HCqWsZJ8O7eCPDuAfDuC3DvcK5w6pXw7TDpxnCocOPw54bw401w4VlTMOdbVHCsFoIw7TDgknDp8Oqw4TCrsKHBcOcH8O2w4LDiXlLY8Oaw4DCvcKawroEwrjDo8OXbwJMw60lw5PDqMODDsOtUERLVWFqW2XCisOTNFphdsOpw4ILwq5eXQLCvGnCnk3CncOcCcKtw5XCg8KpQwnDjcOnwoYIwrjDlgojJDtNw5XCoMOUw4l2w4DCuMOVAMKAw7rDrsOWw75SE1rCqzfCpi5Mw5A+BMKoCcKuWXZUTcOyTcOMw609a03DozzCuiPDuS0xw7YFwpc+w5BYwqzDnwN8wqHCo8KHwrTCr1LCo3DDgCFfSWLCoMO0w4ECw4sqNQPCpsKBecOVDMKkFRQPdHTCuMKnw70Sw6AjHU3CqcOqB8KzCmnDmi3CtcKEWMKKwrbCoGlYw6N0w5vClsKuK8KCwr7CjRjDlF/CiMKOwqI4wozCssOpw53CvW0ZwrE/YMOsPWPDu8O6w77Dh8ODL3DCvcOtNsOxw5HCpcONBMOJf2nDuMKNdMKEZyTDrsOgEcOLRkzCuCjCtcOGw45kw6XDhRrCh2Uqw7HCogduw6jDmm7CvVTCpcOaAXZxwo3CkMKLbcOFw4TCp8Ktw4UXNnwUd8KZw7QxbkBbYcOxVTkQO2oFw4FNwqEIbDgSwpnDpzrCm8Kow6bDnAxASxrDqlHDuFJGF8K9w4fDrR5zdW9lwpNbfmzCvcOTPsOfwrnChwZIwqRpYcKTMsK2L8ONw6/DpcO3wqg3w6hNwrXDhsK3woDCsTfDnRDCkMOiA8OAwpYpw6DCqcOBw5zCk8OGwrQLwq7ClQwdw55tE8KAwrdtw4JCw6TCs1w4wprDlMKcwrHCoyRuw6zDvUrDpU/CmcKCI8KmLkLCr8O3w4TDl8O9GMKrw6HDvsKbbcOCUiPDoMOjURVtwoxXFCLDqsKjDS7CtMOLwoPDimRRcsOYCsOwXS/CgcOew6LDknHCtylrbMOMwrjDm3R5wpk0CMK+HXpiIkbCisKnwqfDrsKle8KLw4vDqsObwrjChMKSVChZw4pPwpEkKVNtw4J6w4vCl1DCnsKPSmxLwofCqMK9RnNJw4zCn8KOw4shwr5Vw7MrRsKbMz7Dv8O2LlLDv8KIG1R/JlLCjX3Cg2oNwrNZw4gLwpRHw5gTTMOMKQZmw5Y5w4U4w4p+w54/IMK1wqFdEcOhw4F9w61kwooqwqsEWsKvw7cKw4BzIsKfDMOsworDmX8MwqnDr8KMCxXCmhXDjTbCscOHQFvDm8OGwrjDhMOxwqo9w6UkwqgDwqxqwrvCgcO1Zlx4woDDiXrDn8KWworCscOxw719w5XCmWbDjUoKRmLCrWLDm8OmCMKCRnl6GBfCmjtMLsO7w6zDo8K4UMOHI2BYXMOkGhzCucKdwqsiwp4sDMOcw47Dp2LDhUoZGGDDlxodwpXCr8OGwoV3eMKgNEjCl8KIw43CocOdVUMbw5Z1YzV6w4ArwonDicKNwpDCsWLClMOvw6DCgcOYwpDDvTFgQsKEXcKeTsKWwr0+w4DDi8KyV8OswpXCvwbClzwTw5xuS3/ChAcoGEtowqPCiMOhwpUWw6LDiMK0W8KnwqlYwrQrPnYWwp7Cjx3Cs8K/FMOiw5zCssOrw4rDvH3DiMO9EU/CpsO+TMOIw40PwoXCrMKVJMOSw7kxwrTDlxjDjMONK8Ktw4TDvcK5UsOLw75pwolBD8KQQ8K3IRfDrCVAXMKOSQ9wwqXDkMOTR8KHLsOVU8Oswrt1YMKtPgbCucO5w5ZIwr8qUsK+dsKDw53CicONVHpRYcKDw4QvF3VPwq13FsK+w5nChcOlaMOXw7cyworDiW18w5cbDcOrCMKdKMONGWDCnDrDkUTDgcOgIWdzYGx0R8OCwoLCscK7XsKtwqzDn1TDssK4w5LCphnDnsOacsOrPsKNcMOOLngww5jDgCFeSMOewoZQR8Omw5Z8w7rCu0Qdw5zDlWslw68KBMO/w4p1wotOSsK+XsKpwogEERotccKMRcKVMCbCi8OqwobDtlHDmk9fW2J0f8OHw5dfwqjCuMK9LMKuw54WNMOyf13DkMO4wrXCoMKRwpd7woogw7ovw5VzXsOnQAlLw6bCtlcHw5XDnsOHW8KPClnCnMKZWsK+wqlhWSzCg8KHesKWw7AgcQYvw55Ew54GQRVQRkjDqcOIw61qLWg6amE3wpfDscOyw5/Dm3E7VcKVw4XCnsOTw4Vlw7Epwo/Ds8KgO8K+w5wPwrjCuRgBI8KnG8OgwoLCkShHEMKpBVsuVyUbwoRtNAhObUfCr8Opw73Djl/CqsOowooewqo+bcKGw7cxKhHCizXCu8OpCcK6wqxWWmBbw4diSR8Kw50EY8ONV8OYJMK9IGAVw5XCvMK6DcONw7jDjcKdwroWMgUzw4VzwqwUGyxCwrddLRfCu1V0w6zCgBDDnhDDssOLw47DhMOCw65XegJiR8OVbhTCp03CjMOdwpoww60sdyDCsHHCj8O0wq4yJMOWRi96w7E+HMOUw7xBLxHDgWF1QlR/HsKQwqnCusOow7HDiCkkI8Ktw4Qxcx0rwpIueilBwqzCpk4wecO7wpvCl8OOBAVBwqQtHFHDuE4RFsOzCj4dU8OoOC42wqrDpMOtXzpww5jDpsOUwo4MwqM3ZBHChMOiw5zDiDtqwr1HJETDmsKgaxtPwo5+w61yw4FyF8KdwojDr8KAM8KEw6AkBhEEwo4RCMKMw6LDlxLDuloKEsOPw6fCu8OaMAzCoBgGwpIYwoY+fcOCIcO8GUbCp0UTQhBywqrCtHsJw6VlX3QTwqzDvsOUwpnDrcOyXGJ6woEoMsO5wo1Dw6TDh38qw7EewoxTwp8HYGtww4xiwpHDk34Zwq8AIMOHwoPClMOfwrTCm1NPwpTDjQPCjMObwq49YUspFzzDvEjCtw3Dl8KADCEuWMOKNmjCmVvCtcOww4fCtsKlw4ovQcK1w4bChMOgwo4IwoLDgsKIQUFtwqdUCQfDlDUDw5PDucKkw4PDtFTCqCxgcXh9fBTCl8O1wqvDpsK5wojDvsKzJkI1K8O0w73CvcKIGEnClzHCmMOccQnCpMOUW8OvwojCow01w6fDtcKFBsKBw5DCjlvCocOXbcOiwqIZw79YBC8bDH8TwrXDnD7CvFnCvzgaSsOrw7Buw51Jw4ZTwrc/DSEZWBvCmsOlwooSU8ORwoHCrEUzQcO2wpHCpV/CrV8cwr1rwp7CrW/CkMKOfhXCncKtG8KUwrnDvMOKw7dyKcKgHcK5PWQndcOZw4vCosOGQ8ODwq5VwpXDvcK4GMK6UyHDnR7Cll40b8KOwr5Ywr/CiG7DocK8w7rDvsKYZMKQw7Biw4XCsHDCjW4NwpTDkWTCr8KtW2/DrjfCnsOhZ8O6csK0wq7DlsK1wrPCo8KvScO+cxHDl8O2w7/Cr8OAwrbDjnU8QMOVQsOcbMKVMsOqw5JcVDvDnMKvcsOOXAlgw4bDlQ9gw4MCGTzDpMKjFh4lwrUZIxdBFMK1AzvCu8O3wpXDlXDCgsOhN3smw7BMwqDDpMO5w7kTRsKgIATDoDh+fcKsw7kbMTzDpcKfwoRxCMOFEcKUAHEEQsKePkHDoMK0acOiKMKMwpMwwoQRBAjCvsOZNcOjw7zDpcKHwprCr17CiVQvwq3Cl1vCsDtAPcOfUcOwIMOKw4nCtsKmwqDCkcKTJVVew4YXwq9+wpgWZsKhwpfDqUjDk8KNbAYZNHrDqsKZw4bDrcK9csOLwq8XwoPCssKrw45Dw5rClGAIw4XDjlXDt8Oywr88P3c7w5fClMOrwqXDr1zCrEl+KcKDV8Onw5bCk29/A2fCv8O+L8KKw5UwKA==]]></gravitDesigner:gravitGraphicSource></svg>

<svg xmlns="http://www.w3.org/2000/svg" xmlns:xlink="http://www.w3.org/1999/xlink" style="isolation:isolate" width="256" height="256"><switch><g><path d="M78.924 15.5c-35.296 0-39.094 3.625-38.921 38.994v146.012c-.173 35.369 3.625 38.994 38.921 38.994h98.157c35.297 0 38.922-3.625 38.922-38.994V54.494c0-35.369-3.625-38.994-38.922-38.994H78.924z" fill="none" vector-effect="non-scaling-stroke" stroke-width="4" stroke="#000" opacity=".2"/><defs><filter id="a" x="-200%" y="-200%" width="400%" height="400%" filterUnits="objectBoundingBox" color-interpolation-filters="sRGB"><feGaussianBlur xmlns="http://www.w3.org/2000/svg" stdDeviation="2.12"/></filter></defs><path d="M78.924 16.5c-35.296 0-39.094 3.625-38.921 38.994v146.012c-.173 35.369 3.625 38.994 38.921 38.994h98.157c35.297 0 38.003-3.637 38.922-38.994V55.494c0-35.369-3.625-38.994-38.922-38.994H78.924z" opacity=".1" filter="url(#a)"/><defs><filter id="b" x="-200%" y="-200%" width="400%" height="400%" filterUnits="objectBoundingBox" color-interpolation-filters="sRGB"><feGaussianBlur xmlns="http://www.w3.org/2000/svg" stdDeviation="8.48"/></filter></defs><g opacity=".3" filter="url(#b)"><linearGradient id="c" x1="-.068" y1=".031" x2=".954" y2="1.053" gradientTransform="matrix(176.0054 0 0 224 39.997 16.5)" gradientUnits="userSpaceOnUse"><stop offset="0%" stop-opacity=".588"/><stop offset="88%" stop-opacity="0"/><stop offset="100%"/></linearGradient><path d="M78.924 16.5c-35.296 0-39.094 3.625-38.921 38.994v146.012c-.173 35.369 3.625 38.994 38.921 38.994h98.157c35.297 0 38.922-3.625 38.922-38.994V55.494c0-35.369-3.625-38.994-38.922-38.994H78.924z" fill="url(#c)"/></g><linearGradient id="d" x1=".513" y1="1.191" x2=".513" y2="-.213" gradientTransform="matrix(176.0054 0 0 223.99998 39.997 15.5)" gradientUnits="userSpaceOnUse"><stop offset="0%" stop-color="#e72662"/><stop offset="48.272%" stop-color="#ec3c50"/><stop offset="100%" stop-color="#ff7b66"/></linearGradient><path d="M78.924 15.5c-35.296 0-39.094 3.625-38.921 38.994v146.012c-.173 35.369 3.625 38.994 38.921 38.994h98.157c35.297 0 38.922-3.625 38.922-38.994V54.494c0-35.369-3.625-38.994-38.922-38.994H78.924z" fill="url(#d)"/><path d="M78.925 15.5c-35.297 0-39.095 3.626-38.922 38.994v2C39.83 21.126 43.628 17.5 78.925 17.5h98.156c35.297 0 38.922 3.626 38.922 38.994v-2c0-35.368-3.625-38.994-38.922-38.994H78.925z" fill="#FFF" opacity=".6"/><g><path d="M109.429 106.303L73 176.124h88.035l-26.925-51.607-7.59 14.546-17.091-32.76zM165.813 79.876c-9.492 0-17.187 7.695-17.187 17.187s7.695 17.187 17.187 17.187S183 106.555 183 97.063s-7.695-17.187-17.187-17.187z" fill="#FFF" opacity=".6"/></g></g><foreignObject requiredExtensions="http://ns.gravit.io/"> </foreignObject></switch> </svg>
